Educa/src/img/icons/code.svg

<svg width="22" height="24" viewBox="0 0 22 24" fill="none" xmlns="http://www.w3.org/2000/svg">
<path d="M11.0307 -0.046875L0.640686 5.95314V17.953L11.0307 23.9532L21.4208 17.953V5.95314L11.0307 -0.046875ZM7.01863 13.8446L6.02363 14.8398L3.13715 11.9531L6.02363 9.06667L7.01863 10.0617L5.12714 11.9531L7.01863 13.8446ZM10.004 15.5801L8.74532 14.9508L12.0575 8.32619L13.3162 8.95552L10.004 15.5801ZM16.0379 14.8396L15.0427 13.8446L16.9344 11.9531L15.0427 10.0617L16.0379 9.06648L18.9244 11.9531L16.0379 14.8396Z" fill="#FF5600"/>
</svg>

<svg xmlns="http://www.w3.org/2000/svg" width="22" height="24" fill="none" xmlns:v="https://vecta.io/nano"><path d="M11.031-.047l-10.39 6v12l10.39 6 10.39-6v-12l-10.39-6zM7.019 13.845l-.995.995-2.886-2.887 2.886-2.886.995.995-1.891 1.891 1.891 1.892zm2.985 1.736l-1.259-.629 3.312-6.625 1.259.629-3.312 6.625zm6.034-.74l-.995-.995 1.892-1.892-1.892-1.891.995-.995 2.886 2.887-2.886 2.887z" fill="#ff5600"/></svg>
